packages/kaspersky-hexa-ui-icons/src/iconsSVGs/24/UPS2.svg

<svg width="24" height="24" viewBox="0 0 24 24" fill="none" xmlns="http://www.w3.org/2000/svg">
<path d="M12 6C12.5523 6 13 6.44772 13 7V11C13 11.5523 12.5523 12 12 12C11.4477 12 11 11.5523 11 11V7C11 6.44772 11.4477 6 12 6Z" fill="black"/>
<path d="M9.68763 9.94487C10.0338 9.51452 9.96551 8.88504 9.53516 8.5389C9.10481 8.19275 8.47534 8.26101 8.12919 8.69136C7.42256 9.56989 7 10.6932 7 11.9121C7 14.7015 9.21821 17 12 17C14.7818 17 17 14.7015 17 11.9121C17 10.6932 16.5774 9.56989 15.8708 8.69136C15.5247 8.26101 14.8952 8.19275 14.4648 8.5389C14.0345 8.88504 13.9662 9.51452 14.3124 9.94487C14.741 10.4778 15 11.1614 15 11.9121C15 13.6381 13.6365 15 12 15C10.3635 15 9 13.6381 9 11.9121C9 11.1614 9.259 10.4778 9.68763 9.94487Z" fill="black"/>
<path fill-rule="evenodd" clip-rule="evenodd" d="M4 5C4 3.34315 5.34315 2 7 2H17C18.6569 2 20 3.34315 20 5V19C20 20.6569 18.6569 22 17 22H7C5.34315 22 4 20.6569 4 19V5ZM7 4C6.44772 4 6 4.44772 6 5V19C6 19.5523 6.44772 20 7 20H17C17.5523 20 18 19.5523 18 19V5C18 4.44772 17.5523 4 17 4H7Z" fill="black"/>
</svg>

<svg xmlns="http://www.w3.org/2000/svg" width="24" height="24" fill="none" viewBox="0 0 24 24"><path fill="#000" fill-rule="evenodd" d="M7 2C5.3431 2 4 3.3431 4 5v14c0 1.6569 1.3431 3 3 3h10c1.6569 0 3-1.3431 3-3V5c0-1.6569-1.3431-3-3-3zM6 5c0-.5523.4477-1 1-1h10c.5523 0 1 .4477 1 1v14c0 .5523-.4477 1-1 1H7c-.5523 0-1-.4477-1-1zm6 1c.5523 0 1 .4477 1 1v4c0 .5523-.4477 1-1 1s-1-.4477-1-1V7c0-.5523.4477-1 1-1M9.6876 9.9449c.3462-.4304.278-1.0599-.1524-1.406s-1.0599-.2779-1.406.1525C7.4226 9.5699 7 10.6932 7 11.912 7 14.7015 9.2182 17 12 17s5-2.2985 5-5.0879c0-1.2189-.4226-2.3422-1.1292-3.2207-.3461-.4304-.9756-.4986-1.406-.1525s-.4986.9756-.1524 1.406c.4286.5329.6876 1.2165.6876 1.9672C15 13.6381 13.6365 15 12 15s-3-1.3619-3-3.0879c0-.7507.259-1.4343.6876-1.9672"/></svg>
